X:1
T:Title
%%score { 1 | ( 2 3 ) }
L:1/8
Q:1/4=87
M:6/8
K:Db
V:1 treble nm="Grand Piano"
V:2 bass 
V:3 bass 
V:1
 [Fd][DF][GB] [FA]DG | F3- F2 F | EAc c2 B | [A,CA]3- [A,CA]2 [CGA] | %4
w: William~J.~Kirkpatrick * * * * *||||
 [DFA]>[CGB][Gc] [Fd][FA][DF] | [DG]2 [DA] [DB]2 [DB] | [DA]>[EA][DA] [CG]2 [A,C] | [A,D]6 | %8
w: ||||
 [Fd]>[Fd][Fd] [Gd]2 [Gd] | [Fd]6 | [FA]>[FA][FA] [A_c]2 [GB] | [FA]3- [FA]2 [FA] | %12
w: ||||
 B>BB [Gc][GB][Gc] |[M:7/8] [Ad]2 [Ad] d3 B | %14
w: ||
[M:3/4] A>A A[CEA] [DFA][EGA][Q:1/4=86][Q:1/4=84][Q:1/4=83][Q:1/4=82][Q:1/4=80][Q:1/4=79][Q:1/4=77][Q:1/4=76][Q:1/4=75][Q:1/4=73][Q:1/4=72][Q:1/4=71][Q:1/4=69][Q:1/4=68][Q:1/4=67] | %15
w: |
 [DFA]6 |] %16
w: |
V:2
 z3 .D3 | [D,A,D]3- [D,A,D]2 [D,A,D] | [E,A,C][E,A,C][E,A,E] [E,=G,E]2 [E,G,D] | A,,3- A,,2 A,, | %4
 D,>D,[D,B,] [D,A,][D,A,][_C,A,] | [B,,G,]2 [A,,F,] [G,,G,]2 [G,,G,] | %6
 [A,,F,]>[A,,G,][A,,F,] [A,,E,]2 [A,,G,] | [D,F,]6 | [D,A,]>[D,A,][D,A,] [D,=A,]2 [D,A,] | %9
 [D,A,]6 | [D,D]>[D,D][D,D] [D,D]2 [D,D] | [D,D]3- [D,D]2 [D,D] | %12
 [G,DG]>[G,DG][G,DG] [E,A,][E,A,][E,A,] |[M:7/8] [F,A,]2 [F,_C][K:treble] [G,B,G]3 [G,DG] | %14
[M:3/4] [A,DF]>[A,DF] [A,DF][K:bass]A,, A,,A,, | D,6 |] %16
V:3
 [D,A,][D,A,][D,D] D,-[D,F,A,][D,B,D] | x6 | x6 | x6 | x6 | x6 | x6 | x6 | x6 | x6 | x6 | x6 | x6 | %13
[M:7/8] x3[K:treble] x4 |[M:3/4] x3[K:bass] x3 | x6 |] %16

